logos/aerogear.svg

<?xml version="1.0" encoding="UTF-8"?>
<svg width="512px" height="161px" viewBox="0 0 512 161" version="1.1" xmlns="http://www.w3.org/2000/svg" preserveAspectRatio="xMidYMid">
    <title>AeroGear</title>
    <g>
        <path d="M406.426221,89.674973 C395.081418,89.674973 383.737468,89.674973 372.390103,89.674973 C372.365344,90.9530563 372.151903,92.66912 372.390103,94.1136871 C372.473772,94.6233837 372.544634,95.6965638 372.759782,96.3334711 C372.822107,96.5187377 373.328389,97.5688662 373.499995,97.8138962 C374.512558,99.2507795 378.732709,100.578381 381.640626,100.773039 C388.579158,101.243462 398.635633,99.0066032 402.726866,97.8138962 C404.275592,102.060514 405.018366,107.113937 405.686009,112.240784 C396.592578,115.012099 386.105807,117.014174 376.089458,115.940994 C374.790885,115.80183 374.112997,115.908551 372.390103,115.571314 C372.198006,115.532895 369.405347,114.874643 367.580002,114.091743 C366.070549,113.442883 362.98761,111.768653 361.292037,110.392387 C360.504014,109.754626 359.666472,109.176629 359.071399,108.542283 C358.754653,108.203339 357.419368,106.625585 357.221295,106.320791 C356.750018,105.605338 355.950895,103.689494 355.37119,102.25261 C355.056152,101.470563 354.852956,100.770478 354.631831,100.032826 C352.243856,92.0953913 351.981751,71.1303855 355.37119,63.7769243 C355.811732,62.8198559 356.453762,60.4967666 357.221295,59.3365026 C357.488523,58.9343802 358.594146,58.2249031 359.071399,57.4872518 C360.891622,54.6741025 365.492551,52.3586971 369.43096,51.2001406 C370.154098,50.9841386 371.937609,50.3771131 373.499995,50.0885411 C375.996398,49.6275091 381.188131,49.6309241 382.750518,49.7197155 C384.274485,49.8059456 385.845409,49.8964445 387.189232,50.0885411 C387.733079,50.1653798 390.08605,50.4838334 391.262535,50.9115687 C392.978599,51.5348158 396.330473,53.1287914 396.806873,53.4190708 C398.480248,54.4333414 400.394385,56.1203772 401.247294,57.1167187 C401.822731,57.7920452 402.550991,59.1230618 403.097399,60.077569 C406.977752,66.8854756 406.642223,77.6454515 406.426221,89.674973 Z M388.666242,70.4371299 C388.587696,69.4527411 388.135201,68.2403976 387.928591,67.8468128 C387.19777,66.4577403 385.860777,65.716674 385.708807,65.6270288 C384.148982,64.7246013 380.021891,64.4710337 377.937855,64.8859625 C373.270333,65.8216868 371.747219,70.4277385 372.389249,75.247231 C377.814914,75.247231 383.241432,75.247231 388.665388,75.247231 C388.730274,73.8376682 388.796014,72.0430582 388.666242,70.4371299 Z" fill="#E25027"></path>
        <path d="M464.763851,114.831102 C462.841177,114.831102 460.104866,114.831102 457.363433,114.831102 C454.838856,114.831102 450.897032,114.900256 450.279761,114.6151 C448.53723,113.810001 448.750671,112.564361 448.116325,110.761213 C442.023872,114.036248 431.871775,118.43142 423.33073,115.201635 C422.59564,114.924162 420.092407,113.710111 418.889454,112.611318 C415.945679,109.926233 413.784805,104.644854 413.338287,99.6622933 C412.594659,91.3030991 414.916895,84.6941193 419.999346,81.535196 C421.322679,80.7130221 424.335609,79.2727238 427.02667,78.9448788 C433.224136,78.1918598 437.90788,79.4853108 445.894834,78.9448788 C446.019483,77.6753332 445.95972,75.8627942 445.894834,74.1364853 C445.816288,72.090869 445.932399,70.4559127 445.526862,69.327238 C445.036802,67.9714622 443.637484,66.6634972 442.195478,65.9984158 C440.969475,65.4323709 437.329029,65.259057 435.165593,65.259057 C428.96642,65.259057 421.347438,66.5320177 417.409883,67.1083078 C416.901894,62.188925 415.646008,58.0191462 415.188391,53.0493914 C420.696017,50.7655752 428.792252,50.5290829 435.53698,49.7205693 C437.393915,49.4951758 439.512955,49.6129951 441.827507,49.7205693 C446.006677,49.9135197 449.458441,50.4488292 452.924719,51.5689663 C455.806169,52.5021293 457.002291,53.184286 458.843858,54.5298166 C459.692499,55.1505023 460.640176,56.1348911 460.976558,56.5284759 C461.563093,57.2106326 462.713966,58.9471867 463.282572,60.4481021 C464.481256,63.6164168 464.958509,68.8653521 465.134384,73.0283008 C465.671401,85.80145 465.020834,102.950989 464.763851,114.831102 Z M432.575276,93.0046489 C431.102535,94.4278719 431.125587,98.9135431 432.575276,100.404213 C433.593816,101.450927 434.857385,101.526058 434.797621,101.514105 C438.498684,102.306397 444.604798,100.160037 446.265367,98.553255 C445.409043,97.0677073 446.138156,93.9950141 445.894834,91.8947569 C441.533812,92.3950621 434.812989,90.8471897 432.575276,93.0046489 Z" fill="#E25027"></path>
        <path d="M512,67.4771334 C506.17136,70.1588032 500.060977,72.5570236 494.981941,75.9874436 C494.981941,88.9339066 494.981941,101.884639 494.981941,114.831955 C488.693976,114.831955 482.406011,114.831955 476.114631,114.831955 C476.114631,93.498124 476.114631,72.1625851 476.114631,50.8304612 C480.37064,50.8236311 487.663484,50.7920419 491.256119,51.061831 C492.018529,51.061831 491.875951,52.0129231 492.392478,53.789604 C492.672512,54.7535025 492.824482,55.8633945 493.131836,56.7504543 C493.241118,57.1517229 493.56384,56.9579187 493.871195,56.7504543 C495.533472,55.6251946 498.210019,54.1294017 500.532255,53.0502452 C503.301862,51.7619167 506.753626,50.5871388 509.779362,49.721423 C510.093547,49.6522682 510.126844,49.8648552 510.149895,50.0902487 C510.74753,52.9144969 511.603854,61.2344179 512,67.4771334 Z" fill="#E25027"></path>
        <path d="M27.0045256,61.6894736 C35.5148358,61.6894736 44.0234385,61.6894736 52.5337487,61.6894736 C54.896111,68.9362145 56.9801467,76.2316198 59.191393,83.5159263 C60.8374482,88.9347604 62.7789054,94.3356655 64.3711735,99.792919 C64.9227044,101.682297 65.2940914,103.526425 65.8498911,105.343233 C70.2962891,119.875134 75.0628483,134.292631 79.1694486,148.996992 C72.3854473,148.996992 65.6031536,148.996992 58.8217136,148.996992 C57.1466305,143.394599 55.7541429,137.514732 54.0124663,131.979786 C53.2654236,131.98747 26.2404077,132.130902 25.1569823,132.348612 C23.2710197,137.617184 22.0091579,143.505588 20.347735,148.996992 C13.5654413,148.996992 6.78400128,148.996992 -7.10542736e-15,148.996992 C6.35968104,127.332754 12.8585255,105.786336 19.6075225,84.2544313 C21.8623107,77.05977 23.7380281,69.8446184 26.2668743,62.7985118 C26.2506528,62.1658734 26.541786,61.8405897 27.0045256,61.6894736 Z M38.8453655,81.2969961 C35.9912356,92.3472514 32.6410693,104.143696 29.5965503,115.330553 C30.2334575,115.374095 48.273471,115.303233 49.2040727,115.330553 C46.0903988,103.524717 43.0091679,91.6821699 39.5855781,80.1871041 C39.2346815,80.3262675 38.9358644,80.9384156 38.8453655,81.2969961 Z" fill="#669EB2"></path>
        <path d="M134.204723,123.841717 C122.860773,123.841717 111.514262,123.841717 100.170312,123.841717 C100.052493,125.862574 100.174581,127.481309 100.539138,129.01979 C100.739772,129.862454 100.891742,129.998202 101.280204,130.870748 C102.253494,133.058089 104.716601,134.011742 105.349239,134.19957 C108.363023,135.096875 111.34351,134.90734 115.338267,134.568396 C119.30485,134.233721 123.026403,133.841844 126.43804,133.090532 C128.163496,132.710608 129.707099,132.416913 130.877608,132.349466 C131.929444,136.847943 132.916395,142.18567 133.467072,146.408382 C127.494145,148.347278 120.185934,149.981381 112.749657,150.479124 C106.797221,150.876978 100.892596,150.198236 96.074811,148.462536 C95.2005576,148.147497 94.2597107,147.863194 93.5118143,147.519128 C92.3242299,146.971866 90.8198993,145.910638 89.4436333,144.930518 C89.3121538,144.839166 86.9745505,142.60999 85.7425704,140.86063 C84.5122979,139.112977 82.2890988,135.127611 81.6735357,131.982348 C80.958936,128.32568 81.3021487,123.633399 81.3021487,119.035031 C81.3021487,114.332504 80.9358844,109.472031 81.3021487,105.345794 C81.6163336,101.841097 82.7680599,98.4747088 84.262999,95.7255918 C85.3148351,93.7952335 86.3624024,91.7914516 87.592675,90.5475188 C87.8991759,90.2384566 89.505958,88.9100013 89.8124589,88.6957067 C92.3660643,86.9335398 96.1738475,85.6400888 99.8023405,84.6275258 C103.972973,83.4621392 111.204346,83.7430272 116.080187,84.6275258 C117.704044,84.922074 119.098239,85.2302825 120.519755,85.7374177 C121.774787,86.1847896 123.108365,86.7081463 124.074824,87.2451633 C124.716854,87.6020363 125.745639,88.2457736 125.857482,88.3149284 C130.777718,91.3457873 133.701003,98.7701109 134.205577,105.345794 C134.625628,110.789387 134.342179,117.228468 134.204723,123.841717 Z M113.858696,100.163452 C110.527312,98.0051392 103.459861,99.122715 101.649884,101.273344 C101.533772,101.414215 101.002731,102.250903 100.911379,102.384944 C99.815147,103.978919 100.114818,108.172603 100.171166,109.412267 C105.595977,109.412267 111.023348,109.412267 116.449013,109.412267 C116.681236,104.812192 116.125436,101.633632 113.858696,100.163452 Z" fill="#669EB2"></path>
        <path d="M179.99289,101.273344 C179.859703,102.110032 179.55064,102.110886 178.144493,102.755477 C176.268775,103.614362 173.579422,104.322986 171.484287,105.344086 C168.556734,106.770725 165.288529,108.456907 163.346218,109.781947 C163.346218,122.854767 163.346218,135.925879 163.346218,148.997845 C163.363293,149.031142 144.110936,149.031142 144.03922,148.959426 C144.03922,127.873186 144.107521,106.452271 144.107521,85.3677383 C147.917865,85.3207814 156.199367,85.3609082 160.015688,85.3677383 C160.37,87.3561525 160.653449,88.9193927 161.126434,91.2851701 C166.333535,88.3550553 171.853966,85.736564 178.144493,83.8864594 C179.448189,88.9953776 179.90666,97.1197869 179.99289,101.273344 Z" fill="#669EB2"></path>
        <path d="M363.129335,61.1951448 L359.975534,45.2340444 C359.723674,43.9884041 358.878449,42.98694 357.8804,42.7803293 L348.605118,40.8849753 C350.761723,45.27161 352.394118,50.0023111 353.357163,55.0360981 C354.309109,59.9631647 354.552431,64.8612034 354.21178,69.6388615 L362.12531,64.2669843 C362.968828,63.6958168 363.371804,62.4476152 363.129335,61.1951448 Z" fill="#E25027"></path>
        <path d="M353.527062,54.2011178 C347.224583,23.6961636 317.385564,4.07412722 286.878049,10.3783137 C256.372241,16.6807926 236.751912,46.5215191 243.055244,77.027327 C248.578238,103.762063 272.179664,122.131629 298.461906,122.025372 C279.805475,118.961607 264.074037,104.753282 260.021224,85.134661 C254.765459,59.6967906 271.123559,34.81472 296.561429,29.5589546 C321.998446,24.3023354 346.877955,40.6621432 352.133721,66.1000136 C353.076275,70.6548395 353.311914,75.1900289 352.939673,79.6005689 C355.007487,71.5401918 355.325941,62.9001096 353.527062,54.2011178 Z" fill="#E25027"></path>
        <path d="M242.320154,60.6478827 L232.90827,66.8692541 C232.0528,67.435299 231.642994,68.6741092 231.876925,69.9265796 L234.907784,85.9124392 C235.14513,87.1666171 235.990355,88.1740575 236.989258,88.3951821 L248.054027,90.7916951 C245.799239,86.2932175 244.101104,81.426768 243.104763,76.2444263 C242.089638,70.9750007 241.865099,65.7397256 242.320154,60.6478827 Z" fill="#E25027"></path>
        <path d="M302.267128,9.65944516 L296.490567,1.08339522 C295.918546,0.235608497 294.671198,-0.173344009 293.41702,0.0691246998 L277.448236,3.16999214 C276.19235,3.41246085 275.195155,4.25597875 274.985129,5.25744282 L272.843038,15.5743156 C277.408109,13.2614715 282.358227,11.5257712 287.630214,10.5080856 C292.570941,9.56040865 297.477517,9.31537865 302.267128,9.65944516 Z" fill="#E25027"></path>
        <path d="M261.803881,22.9439984 L251.230026,20.877038 C250.227708,20.6857951 249.054638,21.2791604 248.341745,22.3335578 L239.240631,35.8178916 C238.526031,36.8799728 238.413335,38.1845228 238.975111,39.0348708 L244.924132,48.1103721 C248.144526,38.345884 253.990242,29.6229868 261.803881,22.9439984 Z" fill="#E25027"></path>
        <path d="M254.984022,101.393725 L252.788997,112.324453 C252.59007,113.326771 253.179167,114.493011 254.240394,115.21188 L267.711922,124.329216 C268.771442,125.044669 270.076845,125.153097 270.93317,124.599005 L280.004402,118.719139 C270.247598,115.357873 261.577634,109.352504 254.984022,101.393725 Z" fill="#E25027"></path>
        <path d="M340.428629,28.6676259 L342.335082,19.1780495 C342.53657,18.1842693 341.945766,17.0094914 340.886246,16.2957454 L327.413011,7.17840971 C326.35776,6.46807884 325.047234,6.35623588 324.191763,6.90691305 L315.791588,12.3530676 C325.308485,15.4966232 333.825626,21.1408508 340.428629,28.6676259 Z" fill="#E25027"></path>
        <path d="M334.704148,77.6582579 C334.829651,66.6378843 325.737074,60.2807646 317.186637,58.0063398 C314.710724,57.3480884 312.202369,57.0637853 309.73414,57.1662369 C299.30457,57.5939722 290.731935,64.7621669 287.89488,75.4307901 C286.129298,82.0653828 286.877195,88.7708379 289.996845,94.3057838 C293.084906,99.7835276 298.264687,103.723644 304.575703,105.402996 C307.222369,106.107351 309.886963,106.412144 312.496063,106.30457 C316.553145,106.13894 322.115411,104.882201 326.879409,100.138693 L303.36336,93.8814636 C302.325184,93.6065519 301.706205,92.5402018 301.982825,91.5028797 L304.673886,81.3926175 C304.949651,80.3552954 306.012586,79.7388785 307.051616,80.0137902 L345.17299,90.1556416 C346.022485,86.9685441 346.428022,83.632038 346.345207,80.2297922 L336.526078,79.6210592 C335.494732,79.5570269 334.692195,78.6947263 334.704148,77.6582579 Z" fill="#EB8467"></path>
        <path d="M252.266494,122.050522 L246.319181,118.001978 C246.312351,117.917455 246.311497,117.829517 246.302959,117.744141 C246.108301,115.725845 245.719839,113.745115 245.168308,111.830124 C245.143549,111.749017 245.112813,111.667909 245.089762,111.586802 L249.143429,105.486665 C249.482373,104.981237 249.423463,104.19919 249.009388,103.564844 L243.724595,95.4694629 C243.31052,94.8359707 242.622387,94.4739751 242.029021,94.5849643 L234.866803,95.9390326 C234.801063,95.8852455 234.7413,95.8237745 234.67556,95.7699875 C233.197696,94.5448375 231.607989,93.4417756 229.910708,92.4872685 C229.838139,92.4479954 229.760446,92.4146986 229.68873,92.3745718 L228.234772,85.0740438 C228.113537,84.4772635 227.526148,83.9675669 226.788497,83.8173046 L217.367222,81.9023141 C216.62957,81.751198 215.891065,81.9885441 215.54956,82.4897031 L211.48394,88.5232466 C211.400271,88.5275154 211.315749,88.5300767 211.231226,88.5377606 C209.213784,88.727296 207.236469,89.1131969 205.318917,89.6681429 C205.234395,89.692902 205.15158,89.7261988 205.067057,89.7509579 L199.035221,85.7211962 C198.532355,85.3865211 197.757992,85.4471383 197.128768,85.8680435 L189.099127,91.2467508 C188.468196,91.6685097 188.110469,92.3651804 188.223166,92.9636683 L189.528569,99.9653791 C189.473929,100.02685 189.412458,100.088321 189.359524,100.153207 C188.04046,101.74206 186.861414,103.467515 185.850558,105.31079 C185.809577,105.385921 185.776281,105.463613 185.734446,105.538744 L178.589303,106.954284 C177.995938,107.070395 177.487095,107.662907 177.332564,108.406535 L175.353541,117.924285 C175.199864,118.668767 175.432941,119.415809 175.928124,119.764998 L181.906173,123.945876 C181.913003,124.032106 181.913857,124.115775 181.922394,124.201151 C182.111076,126.27238 182.500392,128.300068 183.065583,130.262015 C183.088635,130.347391 183.11937,130.428499 183.144983,130.509606 L179.114368,136.572178 C178.777985,137.078459 178.834333,137.857945 179.249262,138.495706 L184.533202,146.587672 C184.946423,147.222018 185.63541,147.584868 186.229629,147.473878 L193.3244,146.135178 C193.390993,146.188111 193.450757,146.249582 193.51735,146.307638 C195.111326,147.630971 196.838489,148.812579 198.687739,149.820019 C198.762017,149.862707 198.842271,149.89515 198.91484,149.93357 L200.284276,157.021511 C200.401242,157.619145 200.986923,158.130549 201.72799,158.274835 L211.143289,160.206901 C211.883501,160.358871 212.622006,160.117256 212.968634,159.616097 L217.101701,153.561209 C217.18537,153.550964 217.275869,153.550964 217.359538,153.54328 C218.719582,153.398994 220.058283,153.163355 221.373078,152.849171 C219.452965,153.050659 217.484187,153.049805 215.485528,152.765502 C202.337577,150.90003 193.19292,138.727076 195.061808,125.580832 C196.928134,112.431174 209.100234,103.28481 222.249892,105.153697 C235.396136,107.020023 244.539938,119.190416 242.673612,132.340074 C242.245023,135.363249 241.250389,138.15847 239.845095,140.671094 C240.808994,139.388742 241.712275,138.04748 242.488346,136.612305 C242.529326,136.535466 242.562623,136.453505 242.605311,136.376666 L249.700936,134.885996 C250.290886,134.758785 250.798022,134.161151 250.946576,133.415816 L252.851322,123.885259 C253.002438,123.134801 252.766799,122.392881 252.266494,122.050522 Z" fill="#669EB2"></path>
    </g>
</svg>

<svg preserveAspectRatio="xMidYMid" viewBox="0 0 512 161" xmlns="http://www.w3.org/2000/svg">
  <path fill="#E25027" d="M406.426 89.675H372.39c-.025 1.278-.238 2.994 0 4.439.084.51.155 1.583.37 2.22.062.185.568 1.235.74 1.48 1.013 1.437 5.233 2.764 8.14 2.959 6.94.47 16.996-1.766 21.087-2.96 1.549 4.248 2.291 9.3 2.959 14.428-9.093 2.771-19.58 4.773-29.597 3.7-1.298-.14-1.976-.032-3.699-.37-.192-.038-2.985-.696-4.81-1.48-1.51-.648-4.592-2.322-6.288-3.699-.788-.637-1.626-1.215-2.22-1.85-.317-.339-1.653-1.916-1.85-2.221-.472-.716-1.271-2.632-1.85-4.068-.316-.782-.519-1.483-.74-2.22-2.388-7.938-2.65-28.903.74-36.256.44-.957 1.082-3.28 1.85-4.44.267-.403 1.372-1.112 1.85-1.85 1.82-2.813 6.42-5.128 10.359-6.287.723-.216 2.507-.823 4.069-1.111 2.496-.461 7.688-.458 9.25-.37 1.524.087 3.095.177 4.44.37.543.076 2.896.395 4.073.823 1.716.623 5.067 2.217 5.544 2.507 1.673 1.014 3.587 2.701 4.44 3.698.576.675 1.304 2.006 1.85 2.96 3.88 6.808 3.545 17.568 3.33 29.598Zm-17.76-19.238c-.078-.984-.53-2.197-.737-2.59-.731-1.39-2.068-2.13-2.22-2.22-1.56-.902-5.687-1.156-7.771-.741-4.668.936-6.19 5.542-5.549 10.361h16.276c.065-1.41.131-3.204.001-4.81Z"/>
  <path fill="#E25027" d="M464.764 114.831h-7.4c-2.525 0-6.467.07-7.084-.216-1.743-.805-1.53-2.05-2.164-3.854-6.092 3.275-16.244 7.67-24.785 4.44-.735-.277-3.239-1.49-4.442-2.59-2.943-2.685-5.104-7.966-5.55-12.949-.744-8.359 1.578-14.968 6.66-18.127 1.324-.822 4.337-2.262 7.028-2.59 6.197-.753 10.88.54 18.868 0 .124-1.27.065-3.082 0-4.809-.079-2.045.037-3.68-.368-4.809-.49-1.356-1.89-2.664-3.332-3.329-1.226-.566-4.866-.739-7.03-.739-6.199 0-13.818 1.273-17.755 1.85-.508-4.92-1.764-9.09-2.222-14.06 5.508-2.283 13.604-2.52 20.349-3.328 1.857-.226 3.976-.108 6.29 0 4.18.193 7.631.728 11.098 1.848 2.881.933 4.077 1.615 5.919 2.96.848.622 1.796 1.606 2.133 2 .586.682 1.737 2.418 2.306 3.92 1.198 3.167 1.676 8.416 1.851 12.58.537 12.772-.113 29.922-.37 41.802Zm-32.189-21.826c-1.472 1.423-1.45 5.909 0 7.4 1.019 1.046 2.282 1.121 2.223 1.11 3.7.791 9.807-1.355 11.467-2.962-.856-1.485-.127-4.558-.37-6.658-4.361.5-11.082-1.048-13.32 1.11Z"/>
  <path fill="#E25027" d="M512 67.477c-5.829 2.682-11.939 5.08-17.018 8.51v38.845h-18.867V50.83c4.256-.006 11.548-.038 15.141.232.763 0 .62.95 1.136 2.728.28.964.432 2.073.74 2.96.11.402.432.208.74 0 1.661-1.125 4.338-2.62 6.66-3.7 2.77-1.288 6.222-2.463 9.247-3.329.315-.069.348.144.37.37.599 2.823 1.455 11.143 1.851 17.386Z"/>
  <path fill="#669EB2" d="M27.005 61.69h25.529c2.362 7.246 4.446 14.542 6.657 21.826 1.646 5.419 3.588 10.82 5.18 16.277.552 1.89.923 3.733 1.479 5.55 4.446 14.532 9.213 28.95 13.32 43.654H58.821c-1.675-5.602-3.068-11.482-4.81-17.017-.747.007-27.772.15-28.855.369-1.886 5.268-3.148 11.157-4.81 16.648H0c6.36-21.664 12.859-43.21 19.608-64.743 2.254-7.194 4.13-14.41 6.659-21.455-.016-.633.275-.958.738-1.11Zm11.84 19.607c-2.854 11.05-6.204 22.847-9.248 34.034.636.043 18.676-.028 19.607 0-3.114-11.806-6.195-23.649-9.618-35.144-.351.14-.65.751-.74 1.11Z"/>
  <path fill="#669EB2" d="M134.205 123.842H100.17c-.118 2.02.005 3.64.37 5.178.2.842.352.978.74 1.85.973 2.188 3.437 3.142 4.07 3.33 3.013.897 5.994.707 9.988.368 3.967-.334 7.688-.726 11.1-1.477 1.725-.38 3.27-.674 4.44-.742 1.051 4.499 2.038 9.837 2.59 14.06-5.974 1.938-13.282 3.572-20.718 4.07-5.953.398-11.857-.28-16.675-2.016-.874-.316-1.815-.6-2.563-.944-1.188-.547-2.692-1.608-4.068-2.588-.132-.092-2.47-2.321-3.701-4.07-1.23-1.748-3.454-5.733-4.07-8.879-.714-3.656-.37-8.349-.37-12.947 0-4.702-.367-9.563 0-13.69.313-3.504 1.465-6.87 2.96-9.62 1.052-1.93 2.1-3.934 3.33-5.177.306-.31 1.913-1.638 2.22-1.852 2.553-1.762 6.36-3.056 9.99-4.068 4.17-1.166 11.401-.885 16.277 0 1.624.294 3.018.602 4.44 1.11 1.255.447 2.588.97 3.555 1.507.642.357 1.67 1 1.782 1.07 4.92 3.03 7.844 10.455 8.349 17.03.42 5.444.136 11.883-.001 18.497Zm-20.346-23.679c-3.332-2.158-10.4-1.04-12.21 1.11-.115.141-.646.978-.738 1.112-1.096 1.594-.796 5.788-.74 7.027h16.278c.232-4.6-.324-7.778-2.59-9.249Z"/>
  <path fill="#669EB2" d="M179.993 101.273c-.133.837-.442.838-1.849 1.482-1.875.86-4.565 1.568-6.66 2.59-2.927 1.426-6.195 3.112-8.138 4.437v39.216c.017.033-19.235.033-19.307-.039 0-21.086.069-42.507.069-63.591 3.81-.047 12.091-.007 15.908 0 .354 1.988.637 3.551 1.11 5.917 5.208-2.93 10.728-5.548 17.018-7.399 1.304 5.11 1.763 13.234 1.849 17.387Z"/>
  <path fill="#E25027" d="m363.13 61.195-3.154-15.961c-.252-1.246-1.098-2.247-2.096-2.454l-9.275-1.895a55.78 55.78 0 0 1 4.752 14.151 55.882 55.882 0 0 1 .855 14.603l7.913-5.372c.844-.571 1.247-1.82 1.004-3.072Z"/>
  <path fill="#E25027" d="M353.527 54.201c-6.302-30.505-36.141-50.127-66.649-43.823-30.506 6.303-50.126 36.144-43.823 66.65 5.523 26.734 29.125 45.104 55.407 44.997-18.657-3.063-34.388-17.272-38.44-36.89-5.257-25.438 11.102-50.32 36.54-55.576 25.436-5.257 50.316 11.103 55.572 36.541a47 47 0 0 1 .806 13.5 56.16 56.16 0 0 0 .587-25.399Z"/>
  <path fill="#E25027" d="m242.32 60.648-9.412 6.221c-.855.566-1.265 1.805-1.031 3.058l3.03 15.985c.238 1.255 1.083 2.262 2.082 2.483l11.065 2.397a55.966 55.966 0 0 1-5.734-30.144Z"/>
  <path fill="#E25027" d="m302.267 9.66-5.776-8.577c-.572-.847-1.82-1.256-3.074-1.014L277.448 3.17c-1.256.242-2.253 1.086-2.463 2.087l-2.142 10.317a56.263 56.263 0 0 1 14.787-5.066 56.175 56.175 0 0 1 14.637-.849Z"/>
  <path fill="#E25027" d="m261.804 22.944-10.574-2.067c-1.002-.191-2.175.402-2.888 1.457l-9.101 13.484c-.715 1.062-.828 2.367-.266 3.217l5.95 9.075a56.355 56.355 0 0 1 16.879-25.166Z"/>
  <path fill="#E25027" d="m254.984 101.394-2.195 10.93c-.199 1.003.39 2.169 1.451 2.888l13.472 9.117c1.06.716 2.365.824 3.221.27l9.071-5.88a56.369 56.369 0 0 1-25.02-17.325Z"/>
  <path fill="#E25027" d="m340.429 28.668 1.906-9.49c.202-.994-.39-2.169-1.449-2.882l-13.473-9.118c-1.055-.71-2.366-.822-3.221-.271l-8.4 5.446a56.284 56.284 0 0 1 24.637 16.315Z"/>
  <path fill="#EB8467" d="M334.704 77.658c.126-11.02-8.967-17.377-17.517-19.652a24.97 24.97 0 0 0-7.453-.84c-10.43.428-19.002 7.596-21.84 18.265-1.765 6.634-1.017 13.34 2.103 18.875 3.088 5.478 8.268 9.418 14.579 11.097 2.646.704 5.311 1.01 7.92.902 4.057-.166 9.62-1.423 14.383-6.166l-23.516-6.258a1.944 1.944 0 0 1-1.38-2.378l2.69-10.11a1.943 1.943 0 0 1 2.379-1.38l38.121 10.143a35.187 35.187 0 0 0 1.172-9.926l-9.819-.609a1.944 1.944 0 0 1-1.822-1.963Z"/>
  <path fill="#669EB2" d="m252.266 122.05-5.947-4.048c-.007-.085-.008-.172-.016-.258a32.743 32.743 0 0 0-1.135-5.914c-.024-.081-.055-.162-.078-.243l4.053-6.1c.34-.506.28-1.288-.134-1.922l-5.284-8.096c-.414-.633-1.103-.995-1.696-.884l-7.162 1.354c-.066-.054-.126-.115-.191-.169a32.193 32.193 0 0 0-4.765-3.283c-.073-.039-.15-.072-.222-.112l-1.454-7.301c-.121-.597-.709-1.106-1.447-1.257l-9.42-1.915c-.738-.15-1.477.087-1.818.588l-4.066 6.033c-.084.005-.168.007-.253.015a32.05 32.05 0 0 0-5.912 1.13c-.085.025-.167.058-.252.083l-6.032-4.03c-.503-.334-1.277-.274-1.906.147l-8.03 5.379c-.63.422-.989 1.118-.876 1.717l1.306 7.001c-.055.062-.117.123-.17.188a32.67 32.67 0 0 0-3.508 5.158c-.041.075-.075.153-.117.228l-7.145 1.415c-.593.116-1.102.709-1.256 1.453l-1.98 9.517c-.153.745.08 1.492.575 1.841l5.978 4.18c.007.087.008.17.016.256a32.566 32.566 0 0 0 1.144 6.061c.023.085.053.166.079.248l-4.03 6.062c-.337.506-.28 1.286.134 1.924l5.284 8.092c.413.634 1.102.997 1.697.886l7.094-1.339c.067.053.127.115.193.173a32.252 32.252 0 0 0 5.17 3.512c.075.043.155.075.228.114l1.37 7.088c.116.597.702 1.109 1.443 1.253l9.415 1.932c.74.152 1.479-.09 1.826-.59l4.133-6.056c.083-.01.174-.01.258-.018a31.61 31.61 0 0 0 4.013-.694c-1.92.202-3.889.2-5.887-.083-13.148-1.866-22.293-14.039-20.424-27.185 1.866-13.15 14.038-22.296 27.188-20.427 13.146 1.866 22.29 14.036 20.424 27.186a23.893 23.893 0 0 1-2.829 8.331c.964-1.282 1.867-2.624 2.643-4.059.041-.077.075-.158.117-.235l7.096-1.491c.59-.127 1.097-.725 1.246-1.47l1.904-9.53c.151-.751-.084-1.493-.585-1.835Z"/>
</svg>
